public/imgs/Enterprises/InfinixNFT/logo-ntf.svg

<svg width="279" height="43" viewBox="0 0 279 43" fill="none" xmlns="http://www.w3.org/2000/svg">
<g clip-path="url(#clip0_443_9009)">
<path d="M34.0964 9.60156C30.4424 9.60156 27.1469 11.1792 24.8407 13.6947L28.9685 19.9836C29.8571 18.0183 31.821 16.6494 34.0964 16.6494C37.2053 16.6494 39.7343 19.2029 39.7343 22.3419C39.7343 25.4809 37.2053 28.0344 34.0964 28.0344C31.9942 28.0344 30.2558 26.8078 29.19 25.1407C23.7601 16.6494 24.5789 17.8435 22.8217 15.0731C22.3949 14.3995 21.8821 13.7015 21.7532 13.5646C19.4537 11.125 16.2092 9.60156 12.6183 9.60156C5.6608 9.60156 0 15.3171 0 22.3419C0 29.3668 5.6608 35.0823 12.6183 35.0823C16.2911 35.0823 19.6014 33.4897 21.9089 30.9525L17.8093 24.5634C16.9502 26.6018 14.9474 28.0344 12.6183 28.0344C9.50939 28.0344 6.98036 25.4809 6.98036 22.3419C6.98036 19.2029 9.50939 16.6494 12.6183 16.6494C14.6923 16.6494 16.4508 17.8218 17.4871 19.4767C21.7465 26.2725 22.1425 26.7997 23.9856 29.6893C24.4608 30.4334 25.2286 31.4025 25.4796 31.6397C27.7362 33.773 30.7673 35.0823 34.0964 35.0823C41.0539 35.0823 46.7147 29.3668 46.7147 22.3419C46.7147 15.3171 41.0539 9.60156 34.0964 9.60156Z" fill="#03D9C5"/>
</g>
<path d="M59.1271 35.5H63.6651V10.6411H59.1271V35.5ZM68.0795 35.5H72.4507V24.8557C72.4507 23.6767 72.7843 22.7313 73.4517 22.0195C74.1413 21.3076 75.0311 20.9517 76.1211 20.9517C77.2111 20.9517 78.0898 21.3076 78.7572 22.0195C79.4468 22.7091 79.7915 23.6545 79.7915 24.8557V35.5H84.1627V23.8213C84.1627 22.4644 83.8735 21.2743 83.2951 20.251C82.7168 19.2055 81.9048 18.3935 80.8593 17.8152C79.836 17.2368 78.657 16.9476 77.3223 16.9476C76.1878 16.9476 75.1646 17.17 74.2525 17.6149C73.3627 18.0599 72.6731 18.7161 72.1837 19.5836V17.348H68.0795V35.5ZM89.9611 35.5H94.3323V21.252H100.672V35.5H105.043V17.348H94.3323V16.7474C94.3323 15.8353 94.5992 15.168 95.1331 14.7453C95.6892 14.3004 96.4456 14.078 97.4021 14.078C97.758 14.078 98.1362 14.1113 98.5366 14.1781V10.4075C98.025 10.2963 97.4577 10.2407 96.8348 10.2407C94.7438 10.2407 93.0754 10.808 91.8297 11.9425C90.584 13.077 89.9611 14.6786 89.9611 16.7474V17.348H86.7578V21.252H89.9611V35.5ZM108.681 35.5H113.052V24.8557C113.052 23.6767 113.386 22.7313 114.053 22.0195C114.743 21.3076 115.633 20.9517 116.723 20.9517C117.813 20.9517 118.691 21.3076 119.359 22.0195C120.048 22.7091 120.393 23.6545 120.393 24.8557V35.5H124.764V23.8213C124.764 22.4644 124.475 21.2743 123.897 20.251C123.318 19.2055 122.506 18.3935 121.461 17.8152C120.438 17.2368 119.259 16.9476 117.924 16.9476C116.789 16.9476 115.766 17.17 114.854 17.6149C113.964 18.0599 113.275 18.7161 112.785 19.5836V17.348H108.681V35.5ZM128.461 15.3126H132.832V10.6411H128.461V15.3126ZM128.461 35.5H132.832V17.348H128.461V35.5ZM135.233 35.5H140.371L144.175 29.8609L147.946 35.5H153.051L146.744 26.3906L153.084 17.348H147.979L144.175 22.9871L140.338 17.348H135.199L141.572 26.3906L135.233 35.5Z" fill="black"/>
<path d="M171.788 19.1738H172.977V12.4032L177.734 19.1738H178.729V10.1342H177.528V16.8078L172.783 10.1342H171.788V19.1738ZM180.746 19.1738H181.936V15.2425H186.049V14.1505H181.936V11.2263H186.474V10.1342H180.746V19.1738ZM189.398 19.1738H190.599V11.2263H193.014V10.1342H186.947V11.2263H189.398V19.1738ZM198.635 19.3194C199.266 19.3194 199.788 19.186 200.201 18.919C200.621 18.6521 200.969 18.3528 201.244 18.0211L202.336 19.1738H203.829L201.887 17.099L203.452 14.7086H202.154L201.111 16.2617L199.521 14.5509C199.675 14.4619 199.849 14.3446 200.043 14.199C200.237 14.0534 200.423 13.8835 200.601 13.6894C200.787 13.4953 200.937 13.2688 201.05 13.0099C201.171 12.7511 201.232 12.4599 201.232 12.1363C201.232 11.7157 201.131 11.3476 200.929 11.0321C200.726 10.7086 200.455 10.4538 200.116 10.2677C199.784 10.0817 199.416 9.98863 199.011 9.98863C198.607 9.98863 198.231 10.0817 197.883 10.2677C197.543 10.4538 197.268 10.7126 197.058 11.0443C196.856 11.3678 196.755 11.748 196.755 12.1848C196.755 12.6459 196.86 13.0585 197.07 13.4225C197.289 13.7784 197.527 14.0979 197.786 14.381C197.657 14.4619 197.491 14.5752 197.289 14.7208C197.094 14.8583 196.9 15.0322 196.706 15.2425C196.512 15.4528 196.346 15.7036 196.209 15.9948C196.079 16.286 196.014 16.6217 196.014 17.0019C196.014 17.4711 196.128 17.8796 196.354 18.2274C196.581 18.5752 196.888 18.8462 197.276 19.0404C197.673 19.2264 198.126 19.3194 198.635 19.3194ZM197.907 12.1363C197.907 11.8127 198.012 11.5458 198.223 11.3355C198.433 11.1252 198.696 11.02 199.011 11.02C199.327 11.02 199.59 11.1252 199.8 11.3355C200.011 11.5458 200.116 11.8087 200.116 12.1242C200.116 12.383 200.047 12.6176 199.909 12.8279C199.78 13.0301 199.614 13.2121 199.412 13.3739C199.21 13.5276 199.003 13.6651 198.793 13.7865C198.575 13.5519 198.372 13.2971 198.186 13.022C198 12.7389 197.907 12.4437 197.907 12.1363ZM197.252 16.9776C197.252 16.6541 197.325 16.379 197.471 16.1525C197.616 15.918 197.786 15.7198 197.98 15.558C198.182 15.3962 198.368 15.2668 198.538 15.1697L200.468 17.2082C200.265 17.4832 200.023 17.7299 199.74 17.9483C199.464 18.1586 199.109 18.2638 198.672 18.2638C198.251 18.2638 197.907 18.1506 197.64 17.9241C197.382 17.6976 197.252 17.3821 197.252 16.9776ZM207.502 19.1738H208.691V12.3062L211.64 16.5044H211.737L214.673 12.3668V19.1738H215.874V10.1342H214.782L211.7 14.5509L208.594 10.1342H207.502V19.1738ZM217.882 19.1738H223.767V18.0818H219.071V15.1818H223.524V14.0898H219.071V11.2263H223.767V10.1342H217.882V19.1738ZM226.818 19.1738H228.019V11.2263H230.434V10.1342H224.367V11.2263H226.818V19.1738ZM230.102 19.1738H231.376L232.116 17.0504H235.975L236.715 19.1738H237.989L234.749 10.1342H233.342L230.102 19.1738ZM232.492 15.9584L234.045 11.4811L235.599 15.9584H232.492ZM240.855 19.1738H242.165L245.417 10.1342H244.143L241.51 17.7178L238.865 10.1342H237.591L240.855 19.1738ZM246.557 19.1738H252.442V18.0818H247.747V15.1818H252.2V14.0898H247.747V11.2263H252.442V10.1342H246.557V19.1738ZM253.916 19.1738H255.105V15.7157H257.095L259.048 19.1738H260.432L258.333 15.5095C258.883 15.3234 259.319 15.0079 259.643 14.563C259.967 14.11 260.128 13.564 260.128 12.925C260.128 12.3507 259.999 11.8572 259.74 11.4447C259.489 11.024 259.137 10.7005 258.684 10.474C258.231 10.2475 257.706 10.1342 257.107 10.1342H253.916V19.1738ZM255.105 14.6237V11.2263H257.143C257.677 11.2263 258.106 11.38 258.43 11.6873C258.761 11.9866 258.927 12.3992 258.927 12.925C258.927 13.4427 258.761 13.8552 258.43 14.1626C258.106 14.47 257.677 14.6237 257.143 14.6237H255.105ZM264.89 19.3194C265.481 19.3194 265.998 19.2143 266.443 19.004C266.896 18.7856 267.248 18.4863 267.499 18.1061C267.758 17.7259 267.887 17.2891 267.887 16.7956C267.887 15.6146 267.167 14.8017 265.727 14.3568L264.211 13.9078C263.782 13.7703 263.462 13.5721 263.252 13.3133C263.042 13.0463 262.936 12.7511 262.936 12.4275C262.936 12.0069 263.086 11.6752 263.385 11.4325C263.685 11.1818 264.077 11.0564 264.562 11.0564C265.088 11.0564 265.545 11.1899 265.934 11.4568C266.33 11.7237 266.621 12.108 266.807 12.6095L267.826 12.1848C267.689 11.7723 267.462 11.4002 267.147 11.0685C266.839 10.7369 266.463 10.474 266.018 10.2798C265.582 10.0857 265.092 9.98863 264.55 9.98863C264.008 9.98863 263.523 10.0978 263.094 10.3162C262.674 10.5266 262.342 10.8218 262.099 11.202C261.865 11.5741 261.747 12.0069 261.747 12.5003C261.747 13.0665 261.921 13.5681 262.269 14.0049C262.617 14.4417 263.118 14.7612 263.774 14.9634L265.436 15.4731C265.84 15.5944 266.152 15.7643 266.37 15.9827C266.589 16.2011 266.698 16.5004 266.698 16.8806C266.698 17.3012 266.532 17.6369 266.2 17.8877C265.877 18.1303 265.448 18.2517 264.914 18.2517C264.332 18.2517 263.822 18.098 263.385 17.7906C262.949 17.4751 262.625 17.0262 262.415 16.4437L261.383 16.8684C261.529 17.3295 261.768 17.7461 262.099 18.1182C262.431 18.4822 262.835 18.7734 263.313 18.9918C263.79 19.2102 264.316 19.3194 264.89 19.3194ZM269.628 19.1738H275.513V18.0818H270.817V15.1818H275.27V14.0898H270.817V11.2263H275.513V10.1342H269.628V19.1738ZM171.788 34.1738H177.673V33.0818H172.977V30.1818H177.431V29.0898H172.977V26.2263H177.673V25.1342H171.788V34.1738ZM178.273 34.1738H179.62L181.889 30.6429L184.146 34.1738H185.505L182.556 29.5873L185.432 25.1342H184.073L181.889 28.5317L179.705 25.1342H178.346L181.222 29.5873L178.273 34.1738ZM186.647 34.1738H187.836V30.7157H189.839C190.437 30.7157 190.963 30.6025 191.416 30.376C191.869 30.1495 192.221 29.8259 192.472 29.4053C192.73 28.9847 192.86 28.4912 192.86 27.925C192.86 27.3507 192.73 26.8572 192.472 26.4447C192.221 26.024 191.869 25.7005 191.416 25.474C190.963 25.2475 190.437 25.1342 189.839 25.1342H186.647V34.1738ZM187.836 29.6237V26.2263H189.875C190.417 26.2263 190.85 26.38 191.173 26.6873C191.497 26.9866 191.659 27.3992 191.659 27.925C191.659 28.4427 191.497 28.8552 191.173 29.1626C190.85 29.47 190.417 29.6237 189.875 29.6237H187.836ZM194.468 34.1738H200.353V33.0818H195.657V30.1818H200.11V29.0898H195.657V26.2263H200.353V25.1342H194.468V34.1738ZM201.826 34.1738H203.015V30.7157H205.005L206.959 34.1738H208.342L206.243 30.5095C206.793 30.3234 207.23 30.0079 207.553 29.563C207.877 29.11 208.039 28.564 208.039 27.925C208.039 27.3507 207.909 26.8572 207.65 26.4447C207.4 26.024 207.048 25.7005 206.595 25.474C206.142 25.2475 205.616 25.1342 205.017 25.1342H201.826V34.1738ZM203.015 29.6237V26.2263H205.054C205.588 26.2263 206.016 26.38 206.34 26.6873C206.672 26.9866 206.838 27.3992 206.838 27.925C206.838 28.4427 206.672 28.8552 206.34 29.1626C206.016 29.47 205.588 29.6237 205.054 29.6237H203.015ZM209.694 34.1738H210.883V25.1342H209.694V34.1738ZM212.894 34.1738H218.778V33.0818H214.083V30.1818H218.536V29.0898H214.083V26.2263H218.778V25.1342H212.894V34.1738ZM220.252 34.1738H221.441V27.4032L226.197 34.1738H227.192V25.1342H225.991V31.8078L221.247 25.1342H220.252V34.1738ZM233.372 34.3194C233.995 34.3194 234.553 34.2102 235.046 33.9918C235.548 33.7734 235.969 33.4903 236.308 33.1425C236.656 32.7946 236.903 32.4225 237.048 32.0262L235.956 31.5287C235.746 32.0302 235.418 32.4387 234.974 32.7542C234.529 33.0616 233.995 33.2153 233.372 33.2153C232.741 33.2153 232.179 33.0656 231.685 32.7663C231.2 32.467 230.82 32.0504 230.545 31.5166C230.27 30.9827 230.132 30.3639 230.132 29.6601C230.132 28.9483 230.27 28.3254 230.545 27.7915C230.82 27.2576 231.2 26.841 231.685 26.5417C232.179 26.2424 232.741 26.0928 233.372 26.0928C233.995 26.0928 234.529 26.2505 234.974 26.566C235.418 26.8734 235.746 27.2779 235.956 27.7794L237.048 27.2819C236.903 26.8855 236.656 26.5134 236.308 26.1656C235.969 25.8178 235.548 25.5346 235.046 25.3162C234.553 25.0978 233.995 24.9886 233.372 24.9886C232.733 24.9886 232.142 25.1059 231.6 25.3405C231.067 25.567 230.597 25.8906 230.193 26.3112C229.797 26.7318 229.489 27.2253 229.271 27.7915C229.052 28.3577 228.943 28.9806 228.943 29.6601C228.943 30.3315 229.052 30.9544 229.271 31.5287C229.489 32.0949 229.797 32.5884 230.193 33.009C230.597 33.4215 231.067 33.7451 231.6 33.9797C232.142 34.2062 232.733 34.3194 233.372 34.3194ZM238.666 34.1738H244.551V33.0818H239.855V30.1818H244.308V29.0898H239.855V26.2263H244.551V25.1342H238.666V34.1738Z" fill="black"/>
<path d="M162.592 9.60156L162.592 35.0823" stroke="black" stroke-width="0.485347"/>
<defs>
<clipPath id="clip0_443_9009">
<rect width="46.7147" height="25.4807" fill="white" transform="translate(0 9.60156)"/>
</clipPath>
</defs>
</svg>

<svg xmlns="http://www.w3.org/2000/svg" width="279" height="43" fill="none"><g clip-path="url(#a)"><path fill="#03D9C5" d="M34.096 9.602c-3.654 0-6.95 1.577-9.255 4.093l4.127 6.289c.89-1.966 2.853-3.335 5.128-3.335 3.11 0 5.638 2.554 5.638 5.693s-2.529 5.692-5.638 5.692c-2.102 0-3.84-1.226-4.906-2.893-5.43-8.492-4.611-7.297-6.368-10.068-.427-.674-.94-1.372-1.069-1.508-2.3-2.44-5.544-3.963-9.135-3.963C5.661 9.602 0 15.317 0 22.342s5.66 12.74 12.618 12.74c3.673 0 6.983-1.592 9.29-4.13l-4.099-6.389c-.859 2.039-2.862 3.471-5.19 3.471-3.11 0-5.639-2.553-5.639-5.692 0-3.14 2.53-5.693 5.638-5.693 2.074 0 3.833 1.173 4.87 2.828 4.259 6.796 4.654 7.323 6.498 10.212.475.744 1.243 1.713 1.494 1.95a12.507 12.507 0 0 0 8.616 3.443c6.958 0 12.619-5.715 12.619-12.74s-5.661-12.74-12.619-12.74Z"/></g><path fill="#000" d="M59.127 35.5h4.538V10.641h-4.538V35.5Zm8.952 0h4.372V24.856c0-1.18.333-2.125 1-2.837.69-.711 1.58-1.067 2.67-1.067 1.09 0 1.969.356 2.636 1.067.69.69 1.034 1.636 1.034 2.837V35.5h4.372V23.821c0-1.357-.29-2.547-.868-3.57a6.11 6.11 0 0 0-2.436-2.436c-1.023-.578-2.202-.867-3.537-.867-1.134 0-2.157.222-3.07.667a4.78 4.78 0 0 0-2.068 1.969v-2.236h-4.105V35.5Zm21.882 0h4.371V21.252h6.34V35.5h4.371V17.348h-10.71v-.6c0-.913.266-1.58.8-2.003.556-.445 1.313-.667 2.27-.667.355 0 .733.033 1.134.1v-3.77a8.028 8.028 0 0 0-1.702-.167c-2.091 0-3.76.567-5.005 1.702-1.246 1.134-1.869 2.736-1.869 4.804v.601h-3.203v3.904h3.203V35.5Zm18.72 0h4.371V24.856c0-1.18.334-2.125 1.001-2.837.69-.711 1.58-1.067 2.67-1.067 1.09 0 1.968.356 2.636 1.067.689.69 1.034 1.636 1.034 2.837V35.5h4.371V23.821c0-1.357-.289-2.547-.867-3.57a6.118 6.118 0 0 0-2.436-2.436c-1.023-.578-2.202-.867-3.537-.867-1.135 0-2.158.222-3.07.667a4.782 4.782 0 0 0-2.069 1.969v-2.236h-4.104V35.5Zm19.78-20.187h4.371V10.64h-4.371v4.672Zm0 20.187h4.371V17.348h-4.371V35.5Zm6.772 0h5.138l3.804-5.64 3.771 5.64h5.105l-6.307-9.11 6.34-9.042h-5.105l-3.804 5.64-3.837-5.64h-5.139l6.373 9.043-6.339 9.109ZM171.788 19.174h1.189v-6.77l4.757 6.77h.995v-9.04h-1.201v6.674l-4.745-6.674h-.995v9.04Zm8.958 0h1.19v-3.931h4.113V14.15h-4.113v-2.924h4.538v-1.092h-5.728v9.04Zm8.652 0h1.201v-7.948h2.415v-1.092h-6.067v1.092h2.451v7.948Zm9.237.145c.631 0 1.153-.133 1.566-.4.42-.267.768-.566 1.043-.898l1.092 1.153h1.493l-1.942-2.075 1.565-2.39h-1.298l-1.043 1.553-1.59-1.711c.154-.09.328-.206.522-.352s.38-.316.558-.51c.186-.194.336-.42.449-.68.121-.258.182-.55.182-.873 0-.42-.101-.788-.303-1.104a2.184 2.184 0 0 0-.813-.764 2.22 2.22 0 0 0-1.105-.28c-.404 0-.78.094-1.128.28a2.23 2.23 0 0 0-.825.776c-.202.324-.303.704-.303 1.14 0 .462.105.875.315 1.239.219.355.457.675.716.958-.129.08-.295.194-.497.34a3.718 3.718 0 0 0-.583.521c-.194.21-.36.462-.497.753-.13.291-.195.627-.195 1.007 0 .47.114.878.34 1.225.227.348.534.62.922.813.397.186.85.28 1.359.28Zm-.728-7.183a1.083 1.083 0 0 1 1.104-1.116c.316 0 .579.105.789.316.211.21.316.473.316.788 0 .259-.069.494-.207.704a2.253 2.253 0 0 1-.497.546 5.896 5.896 0 0 1-.619.412 6.33 6.33 0 0 1-.607-.764 1.59 1.59 0 0 1-.279-.886Zm-.655 4.842c0-.324.073-.599.219-.826a2.43 2.43 0 0 1 .509-.594c.202-.162.388-.291.558-.388l1.93 2.038a3.732 3.732 0 0 1-.728.74c-.276.21-.631.316-1.068.316-.421 0-.765-.113-1.032-.34-.258-.226-.388-.542-.388-.946Zm10.25 2.196h1.189v-6.868l2.949 4.198h.097l2.936-4.137v6.807h1.201v-9.04h-1.092l-3.082 4.417-3.106-4.417h-1.092v9.04Zm10.38 0h5.885v-1.092h-4.696v-2.9h4.453V14.09h-4.453v-2.864h4.696v-1.092h-5.885v9.04Zm8.936 0h1.201v-7.948h2.415v-1.092h-6.067v1.092h2.451v7.948Zm3.284 0h1.274l.74-2.124h3.859l.74 2.124h1.274l-3.24-9.04h-1.407l-3.24 9.04Zm2.39-3.216 1.553-4.477 1.554 4.477h-3.107Zm8.363 3.216h1.31l3.252-9.04h-1.274l-2.633 7.584-2.645-7.584h-1.274l3.264 9.04Zm5.702 0h5.885v-1.092h-4.695v-2.9h4.453V14.09h-4.453v-2.864h4.695v-1.092h-5.885v9.04Zm7.359 0h1.189v-3.458h1.99l1.953 3.458h1.384l-2.099-3.665c.55-.186.986-.501 1.31-.946.324-.453.485-.999.485-1.638 0-.574-.129-1.068-.388-1.48a2.504 2.504 0 0 0-1.056-.971c-.453-.226-.978-.34-1.577-.34h-3.191v9.04Zm1.189-4.55v-3.398h2.038c.534 0 .963.154 1.287.461.331.3.497.712.497 1.238 0 .518-.166.93-.497 1.238-.324.307-.753.46-1.287.46h-2.038Zm9.785 4.695c.591 0 1.108-.105 1.553-.315a2.566 2.566 0 0 0 1.056-.898c.259-.38.388-.817.388-1.31 0-1.181-.72-1.994-2.16-2.44l-1.516-.448c-.429-.138-.749-.336-.959-.595a1.4 1.4 0 0 1-.316-.886c0-.42.15-.752.449-.995.3-.25.692-.376 1.177-.376.526 0 .983.134 1.372.4.396.268.687.652.873 1.154l1.019-.425a2.968 2.968 0 0 0-.679-1.117 3.343 3.343 0 0 0-1.129-.788 3.574 3.574 0 0 0-1.468-.291c-.542 0-1.027.109-1.456.327-.42.21-.752.506-.995.886-.234.372-.352.805-.352 1.298 0 .566.174 1.068.522 1.505.348.437.849.756 1.505.958l1.662.51c.404.121.716.291.934.51.219.218.328.517.328.898 0 .42-.166.756-.498 1.007-.323.242-.752.364-1.286.364-.582 0-1.092-.154-1.529-.461-.436-.316-.76-.765-.97-1.347l-1.032.424c.146.462.385.878.716 1.25a3.744 3.744 0 0 0 2.791 1.201Zm4.738-.145h5.885v-1.092h-4.696v-2.9h4.453V14.09h-4.453v-2.864h4.696v-1.092h-5.885v9.04Zm-97.84 15h5.885v-1.092h-4.696v-2.9h4.454V29.09h-4.454v-2.864h4.696v-1.092h-5.885v9.04Zm6.485 0h1.347l2.269-3.531 2.257 3.53h1.359l-2.949-4.586 2.876-4.453h-1.359l-2.184 3.398-2.184-3.398h-1.359l2.876 4.453-2.949 4.587Zm8.374 0h1.189v-3.458h2.003c.598 0 1.124-.114 1.577-.34.453-.227.805-.55 1.056-.97.258-.421.388-.915.388-1.481 0-.574-.13-1.068-.388-1.48a2.504 2.504 0 0 0-1.056-.971c-.453-.227-.979-.34-1.577-.34h-3.192v9.04Zm1.189-4.55v-3.398h2.039c.542 0 .975.154 1.298.461.324.3.486.712.486 1.238 0 .518-.162.93-.486 1.238-.323.307-.756.46-1.298.46h-2.039Zm6.632 4.55h5.885v-1.092h-4.696v-2.9h4.453V29.09h-4.453v-2.864h4.696v-1.092h-5.885v9.04Zm7.358 0h1.189v-3.458h1.99l1.954 3.458h1.383l-2.099-3.665c.55-.186.987-.501 1.31-.946.324-.453.486-.999.486-1.638 0-.574-.13-1.068-.389-1.48a2.496 2.496 0 0 0-1.055-.971c-.453-.227-.979-.34-1.578-.34h-3.191v9.04Zm1.189-4.55v-3.398h2.039c.534 0 .962.154 1.286.461.332.3.498.712.498 1.238 0 .518-.166.93-.498 1.238-.324.307-.752.46-1.286.46h-2.039Zm6.679 4.55h1.189v-9.04h-1.189v9.04Zm3.2 0h5.884v-1.092h-4.695v-2.9h4.453V29.09h-4.453v-2.864h4.695v-1.092h-5.884v9.04Zm7.358 0h1.189v-6.77l4.756 6.77h.995v-9.04h-1.201v6.674l-4.744-6.674h-.995v9.04Zm13.12.145c.623 0 1.181-.109 1.674-.327a3.922 3.922 0 0 0 1.262-.85c.348-.347.595-.72.74-1.116l-1.092-.497c-.21.501-.538.91-.982 1.225-.445.308-.979.461-1.602.461-.631 0-1.193-.15-1.687-.449a3.104 3.104 0 0 1-1.14-1.25c-.275-.533-.413-1.152-.413-1.856 0-.712.138-1.335.413-1.869.275-.533.655-.95 1.14-1.25.494-.299 1.056-.448 1.687-.448.623 0 1.157.157 1.602.473.444.307.772.712.982 1.213l1.092-.497a3.082 3.082 0 0 0-.74-1.116 3.922 3.922 0 0 0-1.262-.85c-.493-.218-1.051-.327-1.674-.327-.639 0-1.23.117-1.772.351a4.223 4.223 0 0 0-1.407.971c-.396.42-.704.914-.922 1.48a5.139 5.139 0 0 0-.328 1.87c0 .67.109 1.293.328 1.868.218.566.526 1.06.922 1.48.404.413.874.736 1.407.97.542.227 1.133.34 1.772.34Zm5.294-.145h5.885v-1.092h-4.696v-2.9h4.453V29.09h-4.453v-2.864h4.696v-1.092h-5.885v9.04Z"/><path stroke="#000" stroke-width=".485" d="M162.592 9.602v25.48"/><defs><clipPath id="a"><path fill="#fff" d="M0 9.602h46.715v25.48H0z"/></clipPath></defs></svg>
